wp-content/themes/xevos-cyber-theme/assets/img/prehled-skoleni/datum.svg

<svg fill="none" height="24" viewBox="0 0 24 24" width="24" xmlns="http://www.w3.org/2000/svg" xmlns:xlink="http://www.w3.org/1999/xlink"><mask id="a" height="24" maskUnits="userSpaceOnUse" width="24" x="0" y="0"><path d="m0 0h24v24h-24z" fill="#d9d9d9"/></mask><g mask="url(#a)"><path d="m7.2875 13.7125c-.19167-.1917-.2875-.4292-.2875-.7125s.09583-.5208.2875-.7125.42917-.2875.7125-.2875.52083.0958.7125.2875.2875.4292.2875.7125-.09583.5208-.2875.7125-.42917.2875-.7125.2875-.52083-.0958-.7125-.2875zm4 0c-.1917-.1917-.2875-.4292-.2875-.7125s.0958-.5208.2875-.7125.4292-.2875.7125-.2875.5208.0958.7125.2875.2875.4292.2875.7125-.0958.5208-.2875.7125-.4292.2875-.7125.2875-.5208-.0958-.7125-.2875zm4 0c-.1917-.1917-.2875-.4292-.2875-.7125s.0958-.5208.2875-.7125.4292-.2875.7125-.2875.5208.0958.7125.2875.2875.4292.2875.7125-.0958.5208-.2875.7125-.4292.2875-.7125.2875-.5208-.0958-.7125-.2875zm-10.2875 8.2875c-.55 0-1.02083-.1958-1.4125-.5875s-.5875-.8625-.5875-1.4125v-14c0-.55.19583-1.02083.5875-1.4125s.8625-.5875 1.4125-.5875h1v-2h2v2h8v-2h2v2h1c.55 0 1.0208.19583 1.4125.5875s.5875.8625.5875 1.4125v14c0 .55-.1958 1.0208-.5875 1.4125s-.8625.5875-1.4125.5875zm0-2h14v-10h-14zm0-12h14v-2h-14z" fill="#0bf"/></g></svg>

<svg width="24" height="24" viewBox="0 0 24 24" fill="none" xmlns="http://www.w3.org/2000/svg">
<mask id="mask0_597_17076" style="mask-type:alpha" maskUnits="userSpaceOnUse" x="0" y="0" width="24" height="24">
<rect width="24" height="24" fill="#D9D9D9"/>
</mask>
<g mask="url(#mask0_597_17076)">
<path d="M7.2875 13.7125C7.09583 13.5208 7 13.2833 7 13C7 12.7167 7.09583 12.4792 7.2875 12.2875C7.47917 12.0958 7.71667 12 8 12C8.28333 12 8.52083 12.0958 8.7125 12.2875C8.90417 12.4792 9 12.7167 9 13C9 13.2833 8.90417 13.5208 8.7125 13.7125C8.52083 13.9042 8.28333 14 8 14C7.71667 14 7.47917 13.9042 7.2875 13.7125ZM11.2875 13.7125C11.0958 13.5208 11 13.2833 11 13C11 12.7167 11.0958 12.4792 11.2875 12.2875C11.4792 12.0958 11.7167 12 12 12C12.2833 12 12.5208 12.0958 12.7125 12.2875C12.9042 12.4792 13 12.7167 13 13C13 13.2833 12.9042 13.5208 12.7125 13.7125C12.5208 13.9042 12.2833 14 12 14C11.7167 14 11.4792 13.9042 11.2875 13.7125ZM15.2875 13.7125C15.0958 13.5208 15 13.2833 15 13C15 12.7167 15.0958 12.4792 15.2875 12.2875C15.4792 12.0958 15.7167 12 16 12C16.2833 12 16.5208 12.0958 16.7125 12.2875C16.9042 12.4792 17 12.7167 17 13C17 13.2833 16.9042 13.5208 16.7125 13.7125C16.5208 13.9042 16.2833 14 16 14C15.7167 14 15.4792 13.9042 15.2875 13.7125ZM5 22C4.45 22 3.97917 21.8042 3.5875 21.4125C3.19583 21.0208 3 20.55 3 20V6C3 5.45 3.19583 4.97917 3.5875 4.5875C3.97917 4.19583 4.45 4 5 4H6V2H8V4H16V2H18V4H19C19.55 4 20.0208 4.19583 20.4125 4.5875C20.8042 4.97917 21 5.45 21 6V20C21 20.55 20.8042 21.0208 20.4125 21.4125C20.0208 21.8042 19.55 22 19 22H5ZM5 20H19V10H5V20ZM5 8H19V6H5V8Z" fill="#00BBFF"/>
</g>
</svg>
